; generated by PrusaSlicer 2.3.0-rc2+ on 2020-12-29 at 12:09:15 UTC

; 

; external perimeters extrusion width = 0.45mm
; perimeters extrusion width = 0.45mm
; infill extrusion width = 0.45mm
; solid infill extrusion width = 0.45mm
; top infill extrusion width = 0.40mm
; first layer extrusion width = 0.42mm

M73 P0 R86
M73 Q0 S87
M201 X1000 Y1000 Z200 E5000 ; sets maximum accelerations, mm/sec^2
M203 X200 Y200 Z12 E120 ; sets maximum feedrates, mm/sec
M204 P1250 R1250 T1250 ; sets acceleration (P, T) and retract acceleration (R), mm/sec^2
M205 X8.00 Y8.00 Z0.40 E4.50 ; sets the jerk limits, mm/sec
M205 S0 T0 ; sets the minimum extruding and travel feed rate, mm/sec
M107
;TYPE:Custom
M862.3 P "MK3SMMU2S" ; printer model check
M862.1 P0.4 ; nozzle diameter check
M115 U3.9.2 ; tell printer latest fw version
G90 ; use absolute coordinates
M83 ; extruder relative mode
M104 S240 ; set extruder temp
M140 S85 ; set bed temp
Tx
M190 S85 ; wait for bed temp
M109 S240 ; wait for extruder temp
G28 W ; home all without mesh bed level
G80 ; mesh bed leveling

;go outside print area
G1 Y-3.0 F1000.0
G1 Z0.4 F1000.0
; select extruder
Tc
; purge line
G1 X55.0 F2000.0
G1 Z0.3 F1000.0
G92 E0.0
G1 X240.0 E25.0 F2200.0
G1 Y-2.0 F1000.0
G1 X55.0 E25 F1400.0
M73 Q0 S86
G1 Z0.20 F1000.0
G1 X5.0 E4.0 F1000.0

M221 S95
G92 E0.0

; Don't change E values below. Excessive value can damage the printer.
M907 E430 ; set extruder motor current
G21 ; set units to millimeters
G90 ; use absolute coordinates
M83 ; use relative distances for extrusion
M900 K0.08 ; Filament gcode LA 1.5
M900 K45 ; Filament gcode LA 1.0
;LAYER_CHANGE
;Z:0.2
;HEIGHT:0.2
;BEFORE_LAYER_CHANGE
G92 E0.0
;0.2


G1 E-1.40000 F2100.000
G1 Z0.200 F10800.000
;AFTER_LAYER_CHANGE
;0.2
G1 Z0.400
G1 X87.711 Y84.658
G1 Z0.200
G1 E1.40000 F2100.000
M204 S1000
;TYPE:Skirt
;WIDTH:0.42
G1 F1200.000
G1 X88.476 Y84.523 E0.02437
G1 X137.504 Y84.523 E1.53723
G1 X138.154 Y84.615 E0.02060
G1 X155.366 Y89.643 E0.56223
G1 X156.204 Y90.128 E0.03036
G1 X156.779 Y90.907 E0.03036
G1 X156.940 Y91.383 E0.01574
G1 X156.997 Y91.885 E0.01585
G1 X156.996 Y123.150 E0.98028
G1 X156.928 Y123.666 E0.01633
G1 X156.748 Y124.158 E0.01645
G1 X156.464 Y124.600 E0.01645
G1 X156.090 Y124.968 E0.01645
G1 X155.406 Y125.343 E0.02449
G1 X154.636 Y125.477 E0.02449
G1 X88.489 Y125.477 E2.07401
G1 X87.960 Y125.415 E0.01668
G1 X87.459 Y125.237 E0.01668
G1 X87.009 Y124.952 E0.01668
G1 X86.632 Y124.571 E0.01680
G1 X86.259 Y123.893 E0.02426
G1 X86.123 Y123.132 E0.02426
G1 X86.123 Y86.877 E1.13673
G1 X86.188 Y86.349 E0.01668
G1 X86.367 Y85.852 E0.01657
G1 X86.651 Y85.406 E0.01657
G1 X87.029 Y85.032 E0.01669
G1 X87.658 Y84.687 E0.02249
;WIPE_START
G1 F8640.000
G1 X88.476 Y84.523 E-0.19266
G1 X93.402 Y84.523 E-1.13734
;WIPE_END
G1 E-0.07000 F2100.000
G1 Z0.400 F10800.000
G1 X89.287 Y87.687
G1 Z0.200
G1 E1.40000 F2100.000
;TYPE:Perimeter
G1 F1200.000
G1 X136.713 Y87.687 E1.48700
G1 X136.713 Y92.687 E0.15677
G1 X152.109 Y92.687 E0.48274
G1 X152.109 Y122.313 E0.92890
G1 X89.287 Y122.313 E1.96974
G1 X89.287 Y118.887 E0.10741
G1 X129.287 Y118.887 E1.25417
G1 X129.287 Y90.113 E0.90219
M73 P0 R85
G1 X89.287 Y90.113 E1.25417
G1 X89.287 Y87.747 E0.07418
;WIPE_START
G1 F8640.000
G1 X95.047 Y87.740 E-1.33000
;WIPE_END
G1 E-0.07000 F2100.000
G1 Z0.400 F10800.000
G1 X137.090 Y92.310
G1 Z0.200
G1 E1.40000 F2100.000
;TYPE:External perimeter
G1 F1200.000
G1 X152.486 Y92.310 E0.48274
G1 X152.486 Y122.690 E0.95254
G1 X88.910 Y122.690 E1.99339
G1 X88.910 Y118.510 E0.13106
G1 X128.910 Y118.510 E1.25417
M73 P1 R85
M73 Q1 S86
G1 X128.910 Y90.490 E0.87855
G1 X88.910 Y90.490 E1.25417
G1 X88.910 Y87.310 E0.09971
G1 X137.090 Y87.310 E1.51065
G1 X137.090 Y92.250 E0.15489
G1 X137.278 Y92.663 F10800.000
;WIPE_START
G1 F8640.000
G1 X142.850 Y92.272 E-1.33000
;WIPE_END
G1 E-0.07000 F2100.000
G1 Z0.400 F10800.000
G1 X136.600 Y88.340
G1 Z0.200
G1 E1.40000 F2100.000
;TYPE:Solid infill
;WIDTH:0.421431
G1 F1200.000
G1 X136.230 Y87.970 E0.01647
G1 X135.695 Y87.970 E0.01685
G1 X136.430 Y88.705 E0.03274
G1 X136.430 Y89.241 E0.01685
G1 X135.159 Y87.970 E0.05657
G1 X134.624 Y87.970 E0.01685
G1 X136.430 Y89.776 E0.08039
G1 X136.430 Y90.311 E0.01685
G1 X134.089 Y87.970 E0.10422
G1 X133.553 Y87.970 E0.01685
G1 X136.430 Y90.847 E0.12805
G1 X136.430 Y91.382 E0.01685
G1 X133.018 Y87.970 E0.15187
G1 X132.483 Y87.970 E0.01685
G1 X136.600 Y92.087 E0.18325
;WIPE_START
G1 F8640.000
G1 X132.527 Y88.014 E-1.33000
;WIPE_END
G1 E-0.07000 F2100.000
G1 Z0.400 F10800.000
G1 X151.231 Y92.800
G1 Z0.200
G1 E1.40000 F2100.000
G1 F1200.000
G1 X151.826 Y93.396 E0.02651
G1 X151.826 Y93.931 E0.01685
G1 X150.865 Y92.970 E0.04278
G1 X150.330 Y92.970 E0.01685
G1 X151.826 Y94.466 E0.06661
G1 X151.826 Y95.002 E0.01685
G1 X149.795 Y92.970 E0.09044
G1 X149.259 Y92.970 E0.01685
G1 X151.826 Y95.537 E0.11426
G1 X151.826 Y96.072 E0.01685
G1 X148.724 Y92.970 E0.13809
G1 X148.189 Y92.970 E0.01685
G1 X151.826 Y96.608 E0.16191
G1 X151.826 Y97.143 E0.01685
G1 X147.653 Y92.970 E0.18574
G1 X147.118 Y92.970 E0.01685
G1 X151.826 Y97.678 E0.20957
G1 X151.826 Y98.213 E0.01685
G1 X146.583 Y92.970 E0.23339
G1 X146.047 Y92.970 E0.01685
G1 X151.826 Y98.749 E0.25722
G1 X151.826 Y99.284 E0.01685
G1 X145.512 Y92.970 E0.28104
G1 X144.977 Y92.970 E0.01685
G1 X151.826 Y99.819 E0.30487
G1 X151.826 Y100.355 E0.01685
G1 X144.442 Y92.970 E0.32870
G1 X143.906 Y92.970 E0.01685
G1 X151.826 Y100.890 E0.35252
G1 X151.826 Y101.425 E0.01685
G1 X143.371 Y92.970 E0.37635
G1 X142.836 Y92.970 E0.01685
G1 X151.826 Y101.961 E0.40017
G1 X151.826 Y102.496 E0.01685
G1 X142.300 Y92.970 E0.42400
G1 X141.765 Y92.970 E0.01685
G1 X151.826 Y103.031 E0.44783
G1 X151.826 Y103.566 E0.01685
G1 X141.230 Y92.970 E0.47165
G1 X140.695 Y92.970 E0.01685
G1 X151.826 Y104.102 E0.49548
M73 Q1 S85
G1 X151.826 Y104.637 E0.01685
G1 X140.159 Y92.970 E0.51930
G1 X139.624 Y92.970 E0.01685
G1 X151.826 Y105.172 E0.54313
G1 X151.826 Y105.708 E0.01685
G1 X139.089 Y92.970 E0.56696
G1 X138.553 Y92.970 E0.01685
G1 X151.826 Y106.243 E0.59078
G1 X151.826 Y106.778 E0.01685
G1 X138.018 Y92.970 E0.61461
G1 X137.483 Y92.970 E0.01685
G1 X151.826 Y107.313 E0.63843
G1 X151.826 Y107.849 E0.01685
G1 X136.947 Y92.970 E0.66226
G1 X136.430 Y92.970 E0.01628
G1 X136.430 Y92.453 E0.01628
G1 X131.947 Y87.970 E0.19952
G1 X131.412 Y87.970 E0.01685
G1 X151.826 Y108.384 E0.90864
G1 X151.826 Y108.919 E0.01685
G1 X130.877 Y87.970 E0.93246
G1 X130.342 Y87.970 E0.01685
G1 X151.826 Y109.455 E0.95629
G1 X151.826 Y109.990 E0.01685
G1 X129.806 Y87.970 E0.98011
G1 X129.271 Y87.970 E0.01685
G1 X151.826 Y110.525 E1.00394
G1 X151.826 Y111.061 E0.01685
G1 X128.736 Y87.970 E1.02777
G1 X128.200 Y87.970 E0.01685
G1 X151.826 Y111.596 E1.05159
G1 X151.826 Y112.131 E0.01685
G1 X127.665 Y87.970 E1.07542
G1 X127.130 Y87.970 E0.01685
G1 X128.990 Y89.830 E0.08280
G1 X128.455 Y89.830 E0.01685
G1 X126.595 Y87.970 E0.08280
G1 X126.059 Y87.970 E0.01685
G1 X127.919 Y89.830 E0.08280
G1 X127.384 Y89.830 E0.01685
G1 X125.524 Y87.970 E0.08280
G1 X124.989 Y87.970 E0.01685
G1 X126.849 Y89.830 E0.08280
G1 X126.314 Y89.830 E0.01685
G1 X124.453 Y87.970 E0.08280
G1 X123.918 Y87.970 E0.01685
G1 X125.778 Y89.830 E0.08280
G1 X125.243 Y89.830 E0.01685
G1 X123.383 Y87.970 E0.08280
G1 X122.847 Y87.970 E0.01685
G1 X124.708 Y89.830 E0.08280
G1 X124.172 Y89.830 E0.01685
G1 X122.312 Y87.970 E0.08280
G1 X121.777 Y87.970 E0.01685
G1 X123.637 Y89.830 E0.08280
G1 X123.102 Y89.830 E0.01685
G1 X121.242 Y87.970 E0.08280
G1 X120.706 Y87.970 E0.01685
G1 X122.567 Y89.830 E0.08280
G1 X122.031 Y89.830 E0.01685
G1 X120.171 Y87.970 E0.08280
G1 X119.636 Y87.970 E0.01685
G1 X121.496 Y89.830 E0.08280
G1 X120.961 Y89.830 E0.01685
G1 X119.100 Y87.970 E0.08280
G1 X118.565 Y87.970 E0.01685
G1 X120.425 Y89.830 E0.08280
G1 X119.890 Y89.830 E0.01685
G1 X118.030 Y87.970 E0.08280
G1 X117.494 Y87.970 E0.01685
G1 X119.355 Y89.830 E0.08280
G1 X118.819 Y89.830 E0.01685
G1 X116.959 Y87.970 E0.08280
G1 X116.424 Y87.970 E0.01685
G1 X118.284 Y89.830 E0.08280
G1 X117.749 Y89.830 E0.01685
G1 X115.889 Y87.970 E0.08280
G1 X115.353 Y87.970 E0.01685
G1 X117.214 Y89.830 E0.08280
G1 X116.678 Y89.830 E0.01685
G1 X114.818 Y87.970 E0.08280
G1 X114.283 Y87.970 E0.01685
G1 X116.143 Y89.830 E0.08280
G1 X115.608 Y89.830 E0.01685
G1 X113.747 Y87.970 E0.08280
G1 X113.212 Y87.970 E0.01685
G1 X115.072 Y89.830 E0.08280
G1 X114.537 Y89.830 E0.01685
G1 X112.677 Y87.970 E0.08280
G1 X112.142 Y87.970 E0.01685
G1 X114.002 Y89.830 E0.08280
G1 X113.466 Y89.830 E0.01685
G1 X111.606 Y87.970 E0.08280
G1 X111.071 Y87.970 E0.01685
G1 X112.931 Y89.830 E0.08280
G1 X112.396 Y89.830 E0.01685
G1 X110.536 Y87.970 E0.08280
G1 X110.000 Y87.970 E0.01685
G1 X111.861 Y89.830 E0.08280
G1 X111.325 Y89.830 E0.01685
G1 X109.465 Y87.970 E0.08280
G1 X108.930 Y87.970 E0.01685
G1 X110.790 Y89.830 E0.08280
G1 X110.255 Y89.830 E0.01685
G1 X108.394 Y87.970 E0.08280
G1 X107.859 Y87.970 E0.01685
G1 X109.719 Y89.830 E0.08280
G1 X109.184 Y89.830 E0.01685
G1 X107.324 Y87.970 E0.08280
G1 X106.789 Y87.970 E0.01685
G1 X108.649 Y89.830 E0.08280
G1 X108.114 Y89.830 E0.01685
G1 X106.253 Y87.970 E0.08280
G1 X105.718 Y87.970 E0.01685
G1 X107.578 Y89.830 E0.08280
G1 X107.043 Y89.830 E0.01685
G1 X105.183 Y87.970 E0.08280
G1 X104.647 Y87.970 E0.01685
G1 X106.508 Y89.830 E0.08280
G1 X105.972 Y89.830 E0.01685
G1 X104.112 Y87.970 E0.08280
G1 X103.577 Y87.970 E0.01685
G1 X105.437 Y89.830 E0.08280
G1 X104.902 Y89.830 E0.01685
G1 X103.042 Y87.970 E0.08280
G1 X102.506 Y87.970 E0.01685
G1 X104.366 Y89.830 E0.08280
G1 X103.831 Y89.830 E0.01685
G1 X101.971 Y87.970 E0.08280
G1 X101.436 Y87.970 E0.01685
G1 X103.296 Y89.830 E0.08280
G1 X102.761 Y89.830 E0.01685
G1 X100.900 Y87.970 E0.08280
G1 X100.365 Y87.970 E0.01685
G1 X102.225 Y89.830 E0.08280
G1 X101.690 Y89.830 E0.01685
G1 X99.830 Y87.970 E0.08280
G1 X99.294 Y87.970 E0.01685
G1 X101.155 Y89.830 E0.08280
G1 X100.619 Y89.830 E0.01685
G1 X98.759 Y87.970 E0.08280
G1 X98.224 Y87.970 E0.01685
G1 X100.084 Y89.830 E0.08280
G1 X99.549 Y89.830 E0.01685
G1 X97.689 Y87.970 E0.08280
G1 X97.153 Y87.970 E0.01685
G1 X99.014 Y89.830 E0.08280
G1 X98.478 Y89.830 E0.01685
G1 X96.618 Y87.970 E0.08280
G1 X96.083 Y87.970 E0.01685
G1 X97.943 Y89.830 E0.08280
G1 X97.408 Y89.830 E0.01685
G1 X95.547 Y87.970 E0.08280
G1 X95.012 Y87.970 E0.01685
G1 X96.872 Y89.830 E0.08280
G1 X96.337 Y89.830 E0.01685
G1 X94.477 Y87.970 E0.08280
G1 X93.941 Y87.970 E0.01685
G1 X95.802 Y89.830 E0.08280
G1 X95.266 Y89.830 E0.01685
G1 X93.406 Y87.970 E0.08280
G1 X92.871 Y87.970 E0.01685
G1 X94.731 Y89.830 E0.08280
G1 X94.196 Y89.830 E0.01685
M73 P1 R84
G1 X92.336 Y87.970 E0.08280
G1 X91.800 Y87.970 E0.01685
G1 X93.661 Y89.830 E0.08280
G1 X93.125 Y89.830 E0.01685
G1 X91.265 Y87.970 E0.08280
G1 X90.730 Y87.970 E0.01685
G1 X92.590 Y89.830 E0.08280
G1 X92.055 Y89.830 E0.01685
G1 X90.194 Y87.970 E0.08280
G1 X89.659 Y87.970 E0.01685
G1 X91.519 Y89.830 E0.08280
G1 X90.984 Y89.830 E0.01685
G1 X89.570 Y88.416 E0.06295
G1 X89.570 Y88.951 E0.01685
G1 X90.449 Y89.830 E0.03912
G1 X89.913 Y89.830 E0.01685
G1 X89.400 Y89.317 E0.02285
;WIPE_START
G1 F8640.000
G1 X89.913 Y89.830 E-0.16761
G1 X90.449 Y89.830 E-0.12360
G1 X89.570 Y88.951 E-0.28700
G1 X89.570 Y88.416 E-0.12360
G1 X90.984 Y89.830 E-0.46180
M73 P2 R84
G1 X91.519 Y89.830 E-0.12360
G1 X91.388 Y89.699 E-0.04278
;WIPE_END
G1 E-0.07000 F2100.000
G1 Z0.400 F10800.000
G1 X129.400 Y90.240
M73 Q2 S85
G1 Z0.200
G1 E1.40000 F2100.000
G1 F1200.000
G1 X151.826 Y112.666 E0.99819
G1 X151.826 Y113.202 E0.01685
G1 X129.570 Y90.945 E0.99064
G1 X129.570 Y91.481 E0.01685
G1 X151.826 Y113.737 E0.99064
G1 X151.826 Y114.272 E0.01685
G1 X129.570 Y92.016 E0.99064
G1 X129.570 Y92.551 E0.01685
G1 X151.826 Y114.808 E0.99064
G1 X151.826 Y115.343 E0.01685
G1 X129.570 Y93.086 E0.99064
G1 X129.570 Y93.622 E0.01685
G1 X151.826 Y115.878 E0.99064
G1 X151.826 Y116.414 E0.01685
G1 X129.570 Y94.157 E0.99064
G1 X129.570 Y94.692 E0.01685
G1 X151.826 Y116.949 E0.99064
G1 X151.826 Y117.484 E0.01685
G1 X129.570 Y95.228 E0.99064
G1 X129.570 Y95.763 E0.01685
G1 X151.826 Y118.019 E0.99064
G1 X151.826 Y118.555 E0.01685
G1 X129.570 Y96.298 E0.99064
G1 X129.570 Y96.833 E0.01685
G1 X151.826 Y119.090 E0.99064
G1 X151.826 Y119.625 E0.01685
G1 X129.570 Y97.369 E0.99064
G1 X129.570 Y97.904 E0.01685
G1 X151.826 Y120.161 E0.99064
G1 X151.826 Y120.696 E0.01685
G1 X129.570 Y98.439 E0.99064
G1 X129.570 Y98.975 E0.01685
G1 X151.826 Y121.231 E0.99064
M73 Q2 S84
G1 X151.826 Y121.766 E0.01685
G1 X129.570 Y99.510 E0.99064
G1 X129.570 Y100.045 E0.01685
G1 X151.555 Y122.030 E0.97855
G1 X151.019 Y122.030 E0.01685
G1 X129.570 Y100.581 E0.95472
G1 X129.570 Y101.116 E0.01685
G1 X150.484 Y122.030 E0.93089
G1 X149.949 Y122.030 E0.01685
G1 X129.570 Y101.651 E0.90707
G1 X129.570 Y102.186 E0.01685
G1 X149.414 Y122.030 E0.88324
G1 X148.878 Y122.030 E0.01685
G1 X129.570 Y102.722 E0.85942
G1 X129.570 Y103.257 E0.01685
G1 X148.343 Y122.030 E0.83559
G1 X147.808 Y122.030 E0.01685
G1 X129.570 Y103.792 E0.81176
G1 X129.570 Y104.328 E0.01685
G1 X147.272 Y122.030 E0.78794
G1 X146.737 Y122.030 E0.01685
G1 X129.570 Y104.863 E0.76411
G1 X129.570 Y105.398 E0.01685
G1 X146.202 Y122.030 E0.74029
G1 X145.666 Y122.030 E0.01685
G1 X129.570 Y105.934 E0.71646
G1 X129.570 Y106.469 E0.01685
G1 X145.131 Y122.030 E0.69263
G1 X144.596 Y122.030 E0.01685
G1 X129.570 Y107.004 E0.66881
G1 X129.570 Y107.539 E0.01685
G1 X144.061 Y122.030 E0.64498
G1 X143.525 Y122.030 E0.01685
G1 X129.570 Y108.075 E0.62116
G1 X129.570 Y108.610 E0.01685
G1 X142.990 Y122.030 E0.59733
G1 X142.455 Y122.030 E0.01685
G1 X129.570 Y109.145 E0.57350
M73 P3 R84
M73 Q3 S84
G1 X129.570 Y109.681 E0.01685
G1 X141.919 Y122.030 E0.54968
G1 X141.384 Y122.030 E0.01685
G1 X129.570 Y110.216 E0.52585
G1 X129.570 Y110.751 E0.01685
G1 X140.849 Y122.030 E0.50203
G1 X140.314 Y122.030 E0.01685
G1 X129.570 Y111.286 E0.47820
G1 X129.570 Y111.822 E0.01685
G1 X139.778 Y122.030 E0.45437
G1 X139.243 Y122.030 E0.01685
G1 X129.570 Y112.357 E0.43055
G1 X129.570 Y112.892 E0.01685
G1 X138.708 Y122.030 E0.40672
G1 X138.172 Y122.030 E0.01685
G1 X129.570 Y113.428 E0.38290
M73 P3 R83
G1 X129.570 Y113.963 E0.01685
G1 X137.637 Y122.030 E0.35907
G1 X137.102 Y122.030 E0.01685
G1 X129.570 Y114.498 E0.33524
G1 X129.570 Y115.034 E0.01685
G1 X136.566 Y122.030 E0.31142
G1 X136.031 Y122.030 E0.01685
G1 X129.570 Y115.569 E0.28759
G1 X129.570 Y116.104 E0.01685
G1 X135.496 Y122.030 E0.26377
G1 X134.961 Y122.030 E0.01685
G1 X129.570 Y116.639 E0.23994
G1 X129.570 Y117.175 E0.01685
G1 X134.425 Y122.030 E0.21611
G1 X133.890 Y122.030 E0.01685
G1 X129.570 Y117.710 E0.19229
G1 X129.570 Y118.245 E0.01685
G1 X133.355 Y122.030 E0.16846
G1 X132.819 Y122.030 E0.01685
G1 X129.570 Y118.781 E0.14464
G1 X129.570 Y119.170 E0.01225
G1 X129.424 Y119.170 E0.00460
G1 X132.284 Y122.030 E0.12731
G1 X131.749 Y122.030 E0.01685
G1 X128.889 Y119.170 E0.12731
G1 X128.353 Y119.170 E0.01685
G1 X131.214 Y122.030 E0.12731
G1 X130.678 Y122.030 E0.01685
G1 X127.818 Y119.170 E0.12731
G1 X127.283 Y119.170 E0.01685
G1 X130.143 Y122.030 E0.12731
G1 X129.608 Y122.030 E0.01685
G1 X126.747 Y119.170 E0.12731
G1 X126.212 Y119.170 E0.01685
G1 X129.072 Y122.030 E0.12731
G1 X128.537 Y122.030 E0.01685
G1 X125.677 Y119.170 E0.12731
G1 X125.141 Y119.170 E0.01685
G1 X128.002 Y122.030 E0.12731
G1 X127.466 Y122.030 E0.01685
G1 X124.606 Y119.170 E0.12731
G1 X124.071 Y119.170 E0.01685
G1 X126.931 Y122.030 E0.12731
G1 X126.396 Y122.030 E0.01685
G1 X123.536 Y119.170 E0.12731
G1 X123.000 Y119.170 E0.01685
G1 X125.861 Y122.030 E0.12731
G1 X125.325 Y122.030 E0.01685
G1 X122.465 Y119.170 E0.12731
G1 X121.930 Y119.170 E0.01685
G1 X124.790 Y122.030 E0.12731
G1 X124.255 Y122.030 E0.01685
G1 X121.394 Y119.170 E0.12731
G1 X120.859 Y119.170 E0.01685
G1 X123.719 Y122.030 E0.12731
G1 X123.184 Y122.030 E0.01685
G1 X120.324 Y119.170 E0.12731
G1 X119.789 Y119.170 E0.01685
G1 X122.649 Y122.030 E0.12731
G1 X122.113 Y122.030 E0.01685
G1 X119.253 Y119.170 E0.12731
G1 X118.718 Y119.170 E0.01685
G1 X121.578 Y122.030 E0.12731
G1 X121.043 Y122.030 E0.01685
G1 X118.183 Y119.170 E0.12731
G1 X117.647 Y119.170 E0.01685
