; generated by PrusaSlicer 2.3.0-rc2+ on 2020-12-29 at 12:21:07 UTC

; 

; external perimeters extrusion width = 0.45mm
; perimeters extrusion width = 0.45mm
; infill extrusion width = 0.45mm
; solid infill extrusion width = 0.45mm
; top infill extrusion width = 0.40mm
; support material extrusion width = 0.35mm
; first layer extrusion width = 0.42mm

M73 P0 R81
M73 Q0 S81
M201 X1000 Y1000 Z200 E5000 ; sets maximum accelerations, mm/sec^2
M203 X200 Y200 Z12 E120 ; sets maximum feedrates, mm/sec
M204 P1250 R1250 T1250 ; sets acceleration (P, T) and retract acceleration (R), mm/sec^2
M205 X8.00 Y8.00 Z0.40 E4.50 ; sets the jerk limits, mm/sec
M205 S0 T0 ; sets the minimum extruding and travel feed rate, mm/sec
M107
;TYPE:Custom
M862.3 P "MK3SMMU2S" ; printer model check
M862.1 P0.4 ; nozzle diameter check
M115 U3.9.2 ; tell printer latest fw version
G90 ; use absolute coordinates
M83 ; extruder relative mode
M104 S240 ; set extruder temp
M140 S85 ; set bed temp
Tx
M190 S85 ; wait for bed temp
M109 S240 ; wait for extruder temp
G28 W ; home all without mesh bed level
G80 ; mesh bed leveling

;go outside print area
G1 Y-3.0 F1000.0
G1 Z0.4 F1000.0
; select extruder
Tc
; purge line
G1 X55.0 F2000.0
G1 Z0.3 F1000.0
G92 E0.0
G1 X240.0 E25.0 F2200.0
G1 Y-2.0 F1000.0
G1 X55.0 E25 F1400.0
G1 Z0.20 F1000.0
G1 X5.0 E4.0 F1000.0

M221 S95
G92 E0.0

; Don't change E values below. Excessive value can damage the printer.

M907 E538 ; set extruder motor current
G21 ; set units to millimeters
G90 ; use absolute coordinates
M83 ; use relative distances for extrusion
M900 K0.08 ; Filament gcode LA 1.5
M900 K45 ; Filament gcode LA 1.0
;LAYER_CHANGE
;Z:0.2
;HEIGHT:0.2
;BEFORE_LAYER_CHANGE
G92 E0.0
;0.2


M73 P0 R80
G1 E-1.40000 F2100.000
G1 Z0.200 F10800.000
;AFTER_LAYER_CHANGE
;0.2
G1 Z0.400
G1 X87.711 Y84.658
G1 Z0.200
G1 E1.40000 F2100.000
M204 S1000
;TYPE:Skirt
;WIDTH:0.42
G1 F1200.000
G1 X88.476 Y84.523 E0.02437
G1 X137.504 Y84.523 E1.53723
G1 X162.174 Y85.826 E0.77460
G1 X162.721 Y85.943 E0.01752
G1 X163.228 Y86.186 E0.01763
G1 X163.664 Y86.541 E0.01763
G1 X164.002 Y86.986 E0.01752
G1 X164.245 Y87.559 E0.01953
G1 X164.331 Y88.172 E0.01941
G1 X164.331 Y126.626 E1.20567
G1 X164.264 Y127.150 E0.01657
G1 X164.084 Y127.646 E0.01657
G1 X163.801 Y128.088 E0.01645
G1 X163.424 Y128.459 E0.01657
G1 X162.758 Y128.828 E0.02390
G1 X162.012 Y128.968 E0.02378
G1 X149.766 Y128.796 E0.38399
G1 X88.341 Y125.472 E1.92876
G1 X87.850 Y125.387 E0.01562
G1 X87.392 Y125.203 E0.01550
G1 X86.978 Y124.926 E0.01562
G1 X86.633 Y124.571 E0.01550
G1 X86.259 Y123.894 E0.02426
G1 X86.123 Y123.133 E0.02426
G1 X86.123 Y86.877 E1.13676
G1 X86.188 Y86.349 E0.01668
G1 X86.367 Y85.852 E0.01657
G1 X86.651 Y85.406 E0.01657
G1 X87.029 Y85.032 E0.01669
G1 X87.658 Y84.687 E0.02249
;WIPE_START
G1 F8640.000
G1 X88.476 Y84.523 E-0.19266
G1 X93.402 Y84.523 E-1.13734
;WIPE_END
G1 E-0.07000 F2100.000
G1 Z0.400 F10800.000
G1 X149.887 Y88.023
G1 Z0.200
G1 E1.40000 F2100.000
;TYPE:Support material
G1 F1200.000
G1 X149.887 Y91.486 E0.10860
G1 X150.641 Y91.486 E0.02365
G1 X150.641 Y88.193 E0.10328
G1 X151.396 Y88.193 E0.02365
G1 X151.396 Y91.486 E0.10328
G1 X152.150 Y91.486 E0.02365
G1 X152.150 Y88.193 E0.10328
G1 X152.904 Y88.193 E0.02365
G1 X152.904 Y90.815 E0.08224
G1 X153.658 Y90.815 E0.02365
G1 X153.658 Y88.193 E0.08224
G1 X154.412 Y88.193 E0.02365
G1 X154.412 Y90.815 E0.08224
G1 X155.166 Y90.815 E0.02365
G1 X155.166 Y88.193 E0.08224
G1 X155.921 Y88.193 E0.02365
G1 X155.921 Y90.815 E0.08224
G1 X156.675 Y90.815 E0.02365
G1 X156.675 Y88.193 E0.08224
G1 X157.429 Y88.193 E0.02365
G1 X157.429 Y90.985 E0.08756
G1 X154.412 Y94.656 F10800.000
G1 F1200.000
G1 X154.412 Y91.894 E0.08661
G1 X154.317 Y91.894 E0.00299
G1 X154.317 Y92.237 E0.01077
G1 X153.943 Y91.864 E0.01656
G1 X153.658 Y91.864 E0.00895
G1 X153.658 Y94.656 E0.08756
;WIPE_START
G1 F8640.000
G1 X153.658 Y91.864 E-0.64480
G1 X153.943 Y91.864 E-0.06589
G1 X154.317 Y92.237 E-0.12194
G1 X154.317 Y91.894 E-0.07929
G1 X154.412 Y91.894 E-0.02202
G1 X154.412 Y93.609 E-0.39606
;WIPE_END
G1 E-0.07000 F2100.000
G1 Z0.400 F10800.000
G1 X152.889 Y91.019
G1 Z0.200
G1 E1.40000 F2100.000
;TYPE:Support material interface
;WIDTH:0.35
G1 F1200.000
G1 X152.889 Y91.521 E0.01282
G1 X153.396 Y91.521 E0.01295
G1 X153.396 Y91.157 E0.00929
G1 X153.904 Y91.157 E0.01295
G1 X153.904 Y91.521 E0.00929
G1 X154.085 Y91.521 E0.00464
G1 X154.115 Y91.552 E0.00109
G1 X154.411 Y91.552 E0.00754
G1 X154.411 Y91.157 E0.01006
G1 X154.918 Y91.157 E0.01295
G1 X154.918 Y123.457 E0.82472
G1 X155.425 Y123.457 E0.01295
G1 X155.425 Y91.157 E0.82472
G1 X155.932 Y91.157 E0.01295
G1 X155.932 Y123.457 E0.82472
G1 X156.439 Y123.457 E0.01295
G1 X156.439 Y91.157 E0.82472
G1 X156.946 Y91.157 E0.01295
G1 X156.946 Y123.595 E0.82825
;WIPE_START
M73 Q0 S80
G1 F8640.000
G1 X156.946 Y117.835 E-1.33000
;WIPE_END
G1 E-0.07000 F2100.000
G1 Z0.400 F10800.000
G1 X154.411 Y123.595
G1 Z0.200
G1 E1.40000 F2100.000
G1 F1200.000
G1 X154.411 Y123.310 E0.00727
G1 X154.412 Y123.276 F10800.000
;TYPE:Support material
;WIDTH:0.42
G1 F1200.000
G1 X154.412 Y120.514 E0.08662
G1 X153.658 Y120.514 E0.02365
G1 X153.658 Y123.306 E0.08756
;WIPE_START
G1 F8640.000
G1 X153.658 Y120.514 E-0.64480
G1 X154.412 Y120.514 E-0.17414
G1 X154.412 Y122.727 E-0.51106
;WIPE_END
G1 E-0.07000 F2100.000
G1 Z0.400 F10800.000
G1 X149.887 Y123.344
G1 Z0.200
G1 E1.40000 F2100.000
G1 F1200.000
G1 X149.887 Y126.422 E0.09650
G1 X150.641 Y126.422 E0.02365
G1 X150.641 Y123.514 E0.09118
G1 X151.396 Y123.514 E0.02365
G1 X151.396 Y126.422 E0.09118
G1 X152.150 Y126.422 E0.02365
G1 X152.150 Y123.514 E0.09118
G1 X152.343 Y123.514 E0.00606
G1 X152.343 Y123.799 E0.00894
G1 X152.904 Y123.799 E0.01759
G1 X152.904 Y126.422 E0.08224
G1 X153.658 Y126.422 E0.02365
G1 X153.658 Y123.799 E0.08224
G1 X154.412 Y123.799 E0.02365
G1 X154.412 Y126.422 E0.08224
G1 X155.166 Y126.422 E0.02365
G1 X155.166 Y123.799 E0.08224
G1 X155.921 Y123.799 E0.02365
G1 X155.921 Y126.422 E0.08224
G1 X156.675 Y126.422 E0.02365
G1 X156.675 Y123.799 E0.08224
G1 X157.429 Y123.799 E0.02365
G1 X157.429 Y126.422 E0.08224
G1 X158.183 Y126.422 E0.02365
G1 X158.183 Y88.193 E1.19864
M73 P1 R80
M73 Q1 S80
G1 X158.937 Y88.193 E0.02365
G1 X158.937 Y126.422 E1.19864
G1 X159.691 Y126.422 E0.02365
G1 X159.691 Y88.193 E1.19864
G1 X160.445 Y88.193 E0.02365
G1 X160.445 Y126.422 E1.19864
G1 X161.200 Y126.422 E0.02365
G1 X161.200 Y88.193 E1.19864
G1 X161.954 Y88.193 E0.02365
G1 X161.954 Y126.591 E1.20396
;WIPE_START
G1 F8640.000
G1 X161.954 Y120.831 E-1.33000
;WIPE_END
G1 E-0.07000 F2100.000
G1 Z0.400 F10800.000
G1 X152.109 Y122.313
G1 Z0.200
G1 E1.40000 F2100.000
;TYPE:Perimeter
G1 F1200.000
G1 X89.287 Y122.313 E1.96974
G1 X89.287 Y118.887 E0.10741
G1 X129.287 Y118.887 E1.25417
G1 X129.287 Y90.113 E0.90219
G1 X89.287 Y90.113 E1.25417
G1 X89.287 Y87.687 E0.07606
G1 X136.713 Y87.687 E1.48700
G1 X136.713 Y92.687 E0.15677
G1 X152.109 Y92.687 E0.48274
G1 X152.109 Y122.253 E0.92702
;WIPE_START
G1 F8640.000
G1 X146.349 Y122.258 E-1.33000
;WIPE_END
G1 E-0.07000 F2100.000
G1 Z0.400 F10800.000
G1 X137.090 Y92.310
G1 Z0.200
G1 E1.40000 F2100.000
;TYPE:External perimeter
G1 F1200.000
G1 X152.486 Y92.310 E0.48274
G1 X152.486 Y122.690 E0.95254
G1 X88.910 Y122.690 E1.99339
M73 P1 R79
G1 X88.910 Y118.510 E0.13106
G1 X128.910 Y118.510 E1.25417
G1 X128.910 Y90.490 E0.87855
G1 X88.910 Y90.490 E1.25417
G1 X88.910 Y87.310 E0.09971
G1 X137.090 Y87.310 E1.51065
G1 X137.090 Y92.250 E0.15489
G1 X137.278 Y92.663 F10800.000
;WIPE_START
G1 F8640.000
G1 X142.850 Y92.272 E-1.33000
;WIPE_END
G1 E-0.07000 F2100.000
G1 Z0.400 F10800.000
G1 X136.600 Y88.340
G1 Z0.200
G1 E1.40000 F2100.000
;TYPE:Solid infill
;WIDTH:0.421431
G1 F1200.000
G1 X136.230 Y87.970 E0.01647
G1 X135.695 Y87.970 E0.01685
G1 X136.430 Y88.705 E0.03274
G1 X136.430 Y89.241 E0.01685
G1 X135.159 Y87.970 E0.05657
G1 X134.624 Y87.970 E0.01685
G1 X136.430 Y89.776 E0.08039
G1 X136.430 Y90.311 E0.01685
G1 X134.089 Y87.970 E0.10422
G1 X133.553 Y87.970 E0.01685
G1 X136.430 Y90.847 E0.12805
G1 X136.430 Y91.382 E0.01685
G1 X133.018 Y87.970 E0.15187
G1 X132.483 Y87.970 E0.01685
G1 X136.600 Y92.087 E0.18325
;WIPE_START
G1 F8640.000
G1 X132.527 Y88.014 E-1.33000
;WIPE_END
G1 E-0.07000 F2100.000
G1 Z0.400 F10800.000
G1 X151.231 Y92.800
G1 Z0.200
G1 E1.40000 F2100.000
G1 F1200.000
G1 X151.826 Y93.396 E0.02651
G1 X151.826 Y93.931 E0.01685
G1 X150.865 Y92.970 E0.04278
G1 X150.330 Y92.970 E0.01685
G1 X151.826 Y94.466 E0.06661
G1 X151.826 Y95.002 E0.01685
G1 X149.795 Y92.970 E0.09044
G1 X149.259 Y92.970 E0.01685
G1 X151.826 Y95.537 E0.11426
G1 X151.826 Y96.072 E0.01685
G1 X148.724 Y92.970 E0.13809
G1 X148.189 Y92.970 E0.01685
G1 X151.826 Y96.608 E0.16191
G1 X151.826 Y97.143 E0.01685
G1 X147.653 Y92.970 E0.18574
G1 X147.118 Y92.970 E0.01685
G1 X151.826 Y97.678 E0.20957
G1 X151.826 Y98.213 E0.01685
G1 X146.583 Y92.970 E0.23339
G1 X146.047 Y92.970 E0.01685
G1 X151.826 Y98.749 E0.25722
G1 X151.826 Y99.284 E0.01685
G1 X145.512 Y92.970 E0.28104
G1 X144.977 Y92.970 E0.01685
G1 X151.826 Y99.819 E0.30487
G1 X151.826 Y100.355 E0.01685
G1 X144.442 Y92.970 E0.32870
G1 X143.906 Y92.970 E0.01685
G1 X151.826 Y100.890 E0.35252
G1 X151.826 Y101.425 E0.01685
G1 X143.371 Y92.970 E0.37635
G1 X142.836 Y92.970 E0.01685
G1 X151.826 Y101.961 E0.40017
G1 X151.826 Y102.496 E0.01685
G1 X142.300 Y92.970 E0.42400
M73 P2 R79
M73 Q2 S80
G1 X141.765 Y92.970 E0.01685
G1 X151.826 Y103.031 E0.44783
G1 X151.826 Y103.566 E0.01685
G1 X141.230 Y92.970 E0.47165
G1 X140.695 Y92.970 E0.01685
G1 X151.826 Y104.102 E0.49548
G1 X151.826 Y104.637 E0.01685
G1 X140.159 Y92.970 E0.51930
G1 X139.624 Y92.970 E0.01685
G1 X151.826 Y105.172 E0.54313
G1 X151.826 Y105.708 E0.01685
G1 X139.089 Y92.970 E0.56696
M73 Q2 S79
G1 X138.553 Y92.970 E0.01685
G1 X151.826 Y106.243 E0.59078
G1 X151.826 Y106.778 E0.01685
G1 X138.018 Y92.970 E0.61461
G1 X137.483 Y92.970 E0.01685
G1 X151.826 Y107.313 E0.63843
G1 X151.826 Y107.849 E0.01685
G1 X136.947 Y92.970 E0.66226
G1 X136.430 Y92.970 E0.01628
G1 X136.430 Y92.453 E0.01628
G1 X131.947 Y87.970 E0.19952
G1 X131.412 Y87.970 E0.01685
G1 X151.826 Y108.384 E0.90864
G1 X151.826 Y108.919 E0.01685
G1 X130.877 Y87.970 E0.93246
G1 X130.342 Y87.970 E0.01685
G1 X151.826 Y109.455 E0.95629
G1 X151.826 Y109.990 E0.01685
G1 X129.806 Y87.970 E0.98011
G1 X129.271 Y87.970 E0.01685
G1 X151.826 Y110.525 E1.00394
G1 X151.826 Y111.061 E0.01685
G1 X128.736 Y87.970 E1.02777
G1 X128.200 Y87.970 E0.01685
G1 X151.826 Y111.596 E1.05159
G1 X151.826 Y112.131 E0.01685
G1 X127.665 Y87.970 E1.07542
G1 X127.130 Y87.970 E0.01685
G1 X128.990 Y89.830 E0.08280
G1 X128.455 Y89.830 E0.01685
G1 X126.595 Y87.970 E0.08280
G1 X126.059 Y87.970 E0.01685
G1 X127.919 Y89.830 E0.08280
G1 X127.384 Y89.830 E0.01685
G1 X125.524 Y87.970 E0.08280
G1 X124.989 Y87.970 E0.01685
G1 X126.849 Y89.830 E0.08280
G1 X126.314 Y89.830 E0.01685
G1 X124.453 Y87.970 E0.08280
G1 X123.918 Y87.970 E0.01685
G1 X125.778 Y89.830 E0.08280
G1 X125.243 Y89.830 E0.01685
G1 X123.383 Y87.970 E0.08280
G1 X122.847 Y87.970 E0.01685
G1 X124.708 Y89.830 E0.08280
G1 X124.172 Y89.830 E0.01685
G1 X122.312 Y87.970 E0.08280
G1 X121.777 Y87.970 E0.01685
G1 X123.637 Y89.830 E0.08280
G1 X123.102 Y89.830 E0.01685
G1 X121.242 Y87.970 E0.08280
G1 X120.706 Y87.970 E0.01685
G1 X122.567 Y89.830 E0.08280
G1 X122.031 Y89.830 E0.01685
G1 X120.171 Y87.970 E0.08280
G1 X119.636 Y87.970 E0.01685
G1 X121.496 Y89.830 E0.08280
G1 X120.961 Y89.830 E0.01685
G1 X119.100 Y87.970 E0.08280
G1 X118.565 Y87.970 E0.01685
G1 X120.425 Y89.830 E0.08280
G1 X119.890 Y89.830 E0.01685
G1 X118.030 Y87.970 E0.08280
G1 X117.494 Y87.970 E0.01685
G1 X119.355 Y89.830 E0.08280
G1 X118.819 Y89.830 E0.01685
G1 X116.959 Y87.970 E0.08280
G1 X116.424 Y87.970 E0.01685
G1 X118.284 Y89.830 E0.08280
G1 X117.749 Y89.830 E0.01685
G1 X115.889 Y87.970 E0.08280
G1 X115.353 Y87.970 E0.01685
G1 X117.214 Y89.830 E0.08280
G1 X116.678 Y89.830 E0.01685
G1 X114.818 Y87.970 E0.08280
G1 X114.283 Y87.970 E0.01685
G1 X116.143 Y89.830 E0.08280
G1 X115.608 Y89.830 E0.01685
G1 X113.747 Y87.970 E0.08280
G1 X113.212 Y87.970 E0.01685
G1 X115.072 Y89.830 E0.08280
G1 X114.537 Y89.830 E0.01685
G1 X112.677 Y87.970 E0.08280
G1 X112.142 Y87.970 E0.01685
G1 X114.002 Y89.830 E0.08280
G1 X113.466 Y89.830 E0.01685
G1 X111.606 Y87.970 E0.08280
G1 X111.071 Y87.970 E0.01685
G1 X112.931 Y89.830 E0.08280
G1 X112.396 Y89.830 E0.01685
G1 X110.536 Y87.970 E0.08280
G1 X110.000 Y87.970 E0.01685
G1 X111.861 Y89.830 E0.08280
G1 X111.325 Y89.830 E0.01685
G1 X109.465 Y87.970 E0.08280
G1 X108.930 Y87.970 E0.01685
G1 X110.790 Y89.830 E0.08280
G1 X110.255 Y89.830 E0.01685
G1 X108.394 Y87.970 E0.08280
G1 X107.859 Y87.970 E0.01685
G1 X109.719 Y89.830 E0.08280
G1 X109.184 Y89.830 E0.01685
G1 X107.324 Y87.970 E0.08280
G1 X106.789 Y87.970 E0.01685
G1 X108.649 Y89.830 E0.08280
G1 X108.114 Y89.830 E0.01685
G1 X106.253 Y87.970 E0.08280
G1 X105.718 Y87.970 E0.01685
G1 X107.578 Y89.830 E0.08280
G1 X107.043 Y89.830 E0.01685
G1 X105.183 Y87.970 E0.08280
G1 X104.647 Y87.970 E0.01685
G1 X106.508 Y89.830 E0.08280
G1 X105.972 Y89.830 E0.01685
G1 X104.112 Y87.970 E0.08280
G1 X103.577 Y87.970 E0.01685
G1 X105.437 Y89.830 E0.08280
G1 X104.902 Y89.830 E0.01685
G1 X103.042 Y87.970 E0.08280
G1 X102.506 Y87.970 E0.01685
G1 X104.366 Y89.830 E0.08280
G1 X103.831 Y89.830 E0.01685
G1 X101.971 Y87.970 E0.08280
G1 X101.436 Y87.970 E0.01685
G1 X103.296 Y89.830 E0.08280
G1 X102.761 Y89.830 E0.01685
G1 X100.900 Y87.970 E0.08280
G1 X100.365 Y87.970 E0.01685
G1 X102.225 Y89.830 E0.08280
G1 X101.690 Y89.830 E0.01685
G1 X99.830 Y87.970 E0.08280
G1 X99.294 Y87.970 E0.01685
G1 X101.155 Y89.830 E0.08280
G1 X100.619 Y89.830 E0.01685
G1 X98.759 Y87.970 E0.08280
G1 X98.224 Y87.970 E0.01685
G1 X100.084 Y89.830 E0.08280
G1 X99.549 Y89.830 E0.01685
G1 X97.689 Y87.970 E0.08280
G1 X97.153 Y87.970 E0.01685
G1 X99.014 Y89.830 E0.08280
G1 X98.478 Y89.830 E0.01685
G1 X96.618 Y87.970 E0.08280
G1 X96.083 Y87.970 E0.01685
G1 X97.943 Y89.830 E0.08280
G1 X97.408 Y89.830 E0.01685
G1 X95.547 Y87.970 E0.08280
G1 X95.012 Y87.970 E0.01685
G1 X96.872 Y89.830 E0.08280
G1 X96.337 Y89.830 E0.01685
G1 X94.477 Y87.970 E0.08280
G1 X93.941 Y87.970 E0.01685
G1 X95.802 Y89.830 E0.08280
G1 X95.266 Y89.830 E0.01685
G1 X93.406 Y87.970 E0.08280
G1 X92.871 Y87.970 E0.01685
G1 X94.731 Y89.830 E0.08280
G1 X94.196 Y89.830 E0.01685
G1 X92.336 Y87.970 E0.08280
G1 X91.800 Y87.970 E0.01685
G1 X93.661 Y89.830 E0.08280
G1 X93.125 Y89.830 E0.01685
G1 X91.265 Y87.970 E0.08280
G1 X90.730 Y87.970 E0.01685
G1 X92.590 Y89.830 E0.08280
G1 X92.055 Y89.830 E0.01685
G1 X90.194 Y87.970 E0.08280
G1 X89.659 Y87.970 E0.01685
G1 X91.519 Y89.830 E0.08280
G1 X90.984 Y89.830 E0.01685
G1 X89.570 Y88.416 E0.06295
G1 X89.570 Y88.951 E0.01685
G1 X90.449 Y89.830 E0.03912
G1 X89.913 Y89.830 E0.01685
G1 X89.400 Y89.317 E0.02285
;WIPE_START
G1 F8640.000
G1 X89.913 Y89.830 E-0.16761
G1 X90.449 Y89.830 E-0.12360
G1 X89.570 Y88.951 E-0.28700
G1 X89.570 Y88.416 E-0.12360
G1 X90.984 Y89.830 E-0.46180
G1 X91.519 Y89.830 E-0.12360
G1 X91.388 Y89.699 E-0.04278
;WIPE_END
G1 E-0.07000 F2100.000
G1 Z0.400 F10800.000
G1 X129.400 Y90.240
G1 Z0.200
G1 E1.40000 F2100.000
G1 F1200.000
G1 X151.826 Y112.666 E0.99819
G1 X151.826 Y113.202 E0.01685
G1 X129.570 Y90.945 E0.99064
G1 X129.570 Y91.481 E0.01685
G1 X151.826 Y113.737 E0.99064
M73 P2 R78
G1 X151.826 Y114.272 E0.01685
G1 X129.570 Y92.016 E0.99064
G1 X129.570 Y92.551 E0.01685
G1 X151.826 Y114.808 E0.99064
G1 X151.826 Y115.343 E0.01685
G1 X129.570 Y93.086 E0.99064
G1 X129.570 Y93.622 E0.01685
G1 X151.826 Y115.878 E0.99064
G1 X151.826 Y116.414 E0.01685
G1 X129.570 Y94.157 E0.99064
M73 P3 R78
M73 Q3 S79
G1 X129.570 Y94.692 E0.01685
G1 X151.826 Y116.949 E0.99064
G1 X151.826 Y117.484 E0.01685
G1 X129.570 Y95.228 E0.99064
G1 X129.570 Y95.763 E0.01685
G1 X151.826 Y118.019 E0.99064
G1 X151.826 Y118.555 E0.01685
G1 X129.570 Y96.298 E0.99064
G1 X129.570 Y96.833 E0.01685
G1 X151.826 Y119.090 E0.99064
G1 X151.826 Y119.625 E0.01685
G1 X129.570 Y97.369 E0.99064
G1 X129.570 Y97.904 E0.01685
G1 X151.826 Y120.161 E0.99064
G1 X151.826 Y120.696 E0.01685
